!!!OTL: ICH WAERE WOHL FROEHLICH
!!!ARE: Europa, Mitteleuropa, Deutschland, Hessen; Nassau; Westfalen
!!!SCT: B0475
!!!YEM: Copyright 1995, estate of Helmut Schaffrath.
**kern
*ICvox
*Ivox
*M6/8
*k[f#c#]
*D:
{8a
=1
8.a
16b
8a
8a
8ff#
8dd
=2
4dd
8cc#
4cc#}
{8b
=3
8b
8a
8a
8a
8g
8e
=4
4.d
4r}
{8d
=5
8g
8g
8g
8dd
16dd
16cc#
16dd
16b
=6
4b
8a
4a}
{8f#
=7
8.a
16b
8a
8a
16g
16f#
16g
16e
=8
4.d
8dd
8cc#}
{8b
=9
8b
8a
8a
8a
8g
8e
=10
2d
8r}
==
!!!AGN: Liebes - Lied, Leid, Klage
!!!ONB: ESAC (Essen Associative Code) Database: BOEHME
!!!AMT: compound duple
!!!AIN: vox
!!!EED: Helmut Schaffrath
!!!EEV: 1.0
*-
